svgs/light/square-left.svg

<svg xmlns="http://www.w3.org/2000/svg" viewBox="0 0 448 512"><!-- Font Awesome Pro 6.0.0-alpha2 by @fontawesome - https://fontawesome.com License - https://fontawesome.com/license (Commercial License) --><path d="M0 96V416C0 451.346 28.654 480 64 480H384C419.346 480 448 451.346 448 416V96C448 60.654 419.346 32 384 32H64C28.654 32 0 60.654 0 96ZM384 64C401.645 64 416 78.355 416 96V416C416 433.645 401.645 448 384 448H64C46.355 448 32 433.645 32 416V96C32 78.355 46.355 64 64 64H384ZM91.719 227.719C76.594 242.844 76.391 268.969 91.922 284.469L187.719 376.969C199.203 388.437 216.312 391.844 231.312 385.656C246.312 379.438 256 364.938 256 348.688V320H328C350.062 320 368 302.062 368 280V232C368 209.938 350.062 192 328 192H256V163.312C256 147.062 246.312 132.562 231.312 126.344C216.359 120.156 199.312 123.531 187.828 134.906L91.719 227.719ZM224 163.312V224H328C332.406 224 336 227.594 336 232V280C336 284.406 332.406 288 328 288H224V348.688C224 355.102 215.952 359.943 210.141 354.156L114.344 261.656C110.139 257.495 112.548 252.124 114.141 250.531L210.141 157.844L210.344 157.656C215.194 152.806 224 155.879 224 163.312Z"/></svg>

<svg xmlns="http://www.w3.org/2000/svg" viewBox="0 0 448 512"><!--! Font Awesome Pro 6.3.0 by @fontawesome - https://fontawesome.com License - https://fontawesome.com/license (Commercial License) Copyright 2023 Fonticons, Inc. --><path d="M0 96v320c0 35.35 28.65 64 64 64h320c35.35 0 64-28.65 64-64V96c0-35.35-28.65-64-64-64H64C28.65 32 0 60.65 0 96zM384 64c17.64 0 32 14.36 32 32v320c0 17.64-14.36 32-32 32H64c-17.64 0-32-14.36-32-32V96c0-17.64 14.36-32 32-32H384zM91.72 227.7C76.59 242.8 76.39 268.1 91.92 284.5l95.8 92.5c11.48 11.47 28.59 14.88 43.59 8.688C246.3 379.4 256 364.9 256 348.7V320h72c22.06 0 40-17.94 40-40v-48C368 209.9 350.1 192 328 192H256V163.3c0-16.25-9.688-30.75-24.69-36.97c-14.95-6.188-32-2.812-43.48 8.562L91.72 227.7zM224 163.3V224h104c4.406 0 8 3.594 8 8v48C336 284.4 332.4 288 328 288H224v60.69c0 6.414-8.048 11.26-13.86 5.471l-95.8-92.5C110.1 257.5 112.5 252.1 114.1 250.5l96-92.69C214.1 152.1 224 155.9 224 163.3z"/></svg>
